web-components-icons/e500-image/SVG/increase-vertical-spacing.svg

<svg xmlns="http://www.w3.org/2000/svg" viewBox="0 0 512 512"><defs><style>.cls-1{fill-rule:evenodd;}</style></defs><title>increase-vertical-spacing</title><g id="increase_vertical_spacing" data-name="increase vertical spacing"><path class="cls-1" d="M192,320v96h96v64H64V416h96V320H0V224H160V128H96V32H256v96H192v96H352v96Zm320,48.1-22.63-22.63L432,402.84l-57.37-57.37L352,368.1l80,80ZM432,96l-80,80,22.63,22.63L432,141.25l57.37,57.38L512,176Z"/></g></svg>

<?xml version="1.0" encoding="utf-8"?>
<!-- Generator: Adobe Illustrator 24.2.0, SVG Export Plug-In . SVG Version: 6.00 Build 0)  -->
<svg version="1.1" id="Layer_1" xmlns="http://www.w3.org/2000/svg" xmlns:xlink="http://www.w3.org/1999/xlink" x="0px" y="0px"
	 width="512px" height="512px" viewBox="0 0 512 512" xml:space="preserve">
<path d="M192,320v96h96v64H64v-64h96v-96H0v-96h160v-96H96V32h160v96h-64v96h160v96H192z M512,368.1l-22.6-22.6
	L432,402.8l-57.4-57.4L352,368.1l80,80L512,368.1z M432,96l-80,80l22.6,22.6l57.4-57.4l57.4,57.4L512,176L432,96z"/>
</svg>
